svg/fluentui-system-icons/ic_fluent_dual_screen_group_24_filled.svg

<svg width="24" height="24" viewBox="0 0 24 24" fill="none" xmlns="http://www.w3.org/2000/svg">
<path d="M20.253 4.00439C21.2195 4.00439 22.003 4.78789 22.003 5.75439V18.2495C22.003 19.216 21.2195 19.9995 20.253 19.9995H13.0054C12.9186 19.9995 12.8333 19.9932 12.7499 19.981L12.7498 4.02292C12.8332 4.01071 12.9186 4.00439 13.0054 4.00439H20.253ZM11.0054 4.00195C11.0887 4.00195 11.1707 4.00778 11.2509 4.01905L11.2507 19.98C11.1705 19.9913 11.0886 19.9971 11.0054 19.9971H3.75781C2.79131 19.9971 2.00781 19.2136 2.00781 18.2471V5.75195C2.00781 4.78545 2.79131 4.00195 3.75781 4.00195H11.0054Z" fill="#212121"/>
</svg>

<svg xmlns="http://www.w3.org/2000/svg" width="24" height="24"><path d="M20.253 4.004c.966 0 1.75.784 1.75 1.75V18.25a1.75 1.75 0 0 1-1.75 1.75h-7.248a1.79 1.79 0 0 1-.255-.018V4.023a1.79 1.79 0 0 1 .255-.019h7.248Zm-9.248-.002c.084 0 .166.006.246.017V19.98c-.08.011-.162.017-.246.017H3.758a1.75 1.75 0 0 1-1.75-1.75V5.752c0-.967.783-1.75 1.75-1.75h7.247Z"/></svg>
